symbols/web/sports_bar/materialsymbolsoutlined/sports_bar_wght600fill1_48px.svg

<svg xmlns="http://www.w3.org/2000/svg" height="48" width="48"><path d="M11.35 43.15v-18.4Q8.7 24 6.775 21.925 4.85 19.85 4.85 17q0-2.9 1.675-5.1Q8.2 9.7 10.8 8.7q1.2-2.4 3.575-3.925T19.7 3.25q1.75 0 3.3.575 1.55.575 2.85 1.575.45-.1.875-.15.425-.05.975-.05 3.6 0 6.2 2.575T36.5 14q0 .95-.4 1.925-.4.975-.95 1.575h4q1.7 0 2.85 1.175 1.15 1.175 1.15 2.825v13.65q0 1.65-1.15 2.825-1.15 1.175-2.85 1.175H34v4ZM8.85 17q0 1.7 1.375 2.85Q11.6 21 13.35 21q1.5 0 2.775-.725t2.725-2.525q1.5-1.65 3.1-2.7Q23.55 14 25.7 14h6.65q-.1-1.95-1.325-3.4Q29.8 9.15 27.7 9.15q-.85 0-1.675.25-.825.25-1.025.4l-1.2-1q-.9-.75-1.975-1.175Q20.75 7.2 19.7 7.2q-1.65 0-3.125.85t-2.175 2.3L13.65 12l-1.95.7q-1.25.45-2.05 1.725-.8 1.275-.8 2.575ZM34 35.15h5.15V21.5H34Z"/></svg>

<svg xmlns="http://www.w3.org/2000/svg" height="48" width="48"><path d="M11.35 43.15V24.75Q8.7 24 6.775 21.925Q4.85 19.85 4.85 17Q4.85 14.1 6.525 11.9Q8.2 9.7 10.8 8.7Q12 6.3 14.375 4.775Q16.75 3.25 19.7 3.25Q21.45 3.25 23 3.825Q24.55 4.4 25.85 5.4Q26.3 5.3 26.725 5.25Q27.15 5.2 27.7 5.2Q31.3 5.2 33.9 7.775Q36.5 10.35 36.5 14Q36.5 14.95 36.1 15.925Q35.7 16.9 35.15 17.5H39.15Q40.85 17.5 42 18.675Q43.15 19.85 43.15 21.5V35.15Q43.15 36.8 42 37.975Q40.85 39.15 39.15 39.15H34V43.15ZM8.85 17Q8.85 18.7 10.225 19.85Q11.6 21 13.35 21Q14.85 21 16.125 20.275Q17.4 19.55 18.85 17.75Q20.35 16.1 21.95 15.05Q23.55 14 25.7 14H32.35Q32.25 12.05 31.025 10.6Q29.8 9.15 27.7 9.15Q26.85 9.15 26.025 9.4Q25.2 9.65 25 9.8L23.8 8.8Q22.9 8.05 21.825 7.625Q20.75 7.2 19.7 7.2Q18.05 7.2 16.575 8.05Q15.1 8.9 14.4 10.35L13.65 12L11.7 12.7Q10.45 13.15 9.65 14.425Q8.85 15.7 8.85 17ZM34 35.15H39.15Q39.15 35.15 39.15 35.15Q39.15 35.15 39.15 35.15V21.5Q39.15 21.5 39.15 21.5Q39.15 21.5 39.15 21.5H34Z"/></svg>
